%
(Header)
(Generated by gcodetools from Inkscape.)
(Using default header. To add your own header create file "header" in the output dir.)
M3
(Header end.)
G21 (All units in mm)

(Start cutting path id: path3160)
(Change tool to Default tool)

G00 Z5.000000
G00 X25.250070 Y22.686436

G01 Z-1.000000 F100.0(Penetrate)
G01 X26.750081 Y22.686436 Z-1.000000 F400.000000
G01 X26.750081 Y21.386450 Z-1.000000
G01 X25.250070 Y21.386450 Z-1.000000
G01 X25.250070 Y22.686436 Z-1.000000
G00 Z5.000000

(End cutting path id: path3160)


(Start cutting path id: path3158)
(Change tool to Default tool)

G00 Z5.000000
G00 X25.250070 Y24.586145

G01 Z-1.000000 F100.0(Penetrate)
G01 X26.750081 Y24.586145 Z-1.000000 F400.000000
G01 X26.750081 Y23.286159 Z-1.000000
G01 X25.250070 Y23.286159 Z-1.000000
G01 X25.250070 Y24.586145 Z-1.000000
G00 Z5.000000

(End cutting path id: path3158)


(Start cutting path id: path3156)
(Change tool to Default tool)

G00 Z5.000000
G00 X21.682075 Y25.272297

G01 Z-1.000000 F100.0(Penetrate)
G01 X23.206075 Y25.272297 Z-1.000000 F400.000000
G01 X23.206075 Y24.510297 Z-1.000000
G01 X21.682075 Y24.510297 Z-1.000000
G01 X21.682075 Y25.272297 Z-1.000000
G00 Z5.000000

(End cutting path id: path3156)


(Start cutting path id: path3112)
(Change tool to Default tool)

G00 Z5.000000
G00 X21.758275 Y22.617997

G01 Z-1.000000 F100.0(Penetrate)
G01 X22.367875 Y22.617997 Z-1.000000 F400.000000
G01 X22.367875 Y20.408197 Z-1.000000
G01 X21.758275 Y20.408197 Z-1.000000
G01 X21.758275 Y22.617997 Z-1.000000
G00 Z5.000000

(End cutting path id: path3112)


(Start cutting path id: path3114)
(Change tool to Default tool)

G00 Z5.000000
G00 X20.488275 Y22.617997

G01 Z-1.000000 F100.0(Penetrate)
G01 X21.097875 Y22.617997 Z-1.000000 F400.000000
G01 X21.097875 Y20.408197 Z-1.000000
G01 X20.488275 Y20.408197 Z-1.000000
G01 X20.488275 Y22.617997 Z-1.000000
G00 Z5.000000

(End cutting path id: path3114)


(Start cutting path id: path3116)
(Change tool to Default tool)

G00 Z5.000000
G00 X19.218275 Y22.617997

G01 Z-1.000000 F100.0(Penetrate)
G01 X19.827875 Y22.617997 Z-1.000000 F400.000000
G01 X19.827875 Y20.408197 Z-1.000000
G01 X19.218275 Y20.408197 Z-1.000000
G01 X19.218275 Y22.617997 Z-1.000000
G00 Z5.000000

(End cutting path id: path3116)


(Start cutting path id: path3118)
(Change tool to Default tool)

G00 Z5.000000
G00 X17.948275 Y22.617997

G01 Z-1.000000 F100.0(Penetrate)
G01 X18.557875 Y22.617997 Z-1.000000 F400.000000
G01 X18.557875 Y20.408197 Z-1.000000
G01 X17.948275 Y20.408197 Z-1.000000
G01 X17.948275 Y22.617997 Z-1.000000
G00 Z5.000000

(End cutting path id: path3118)


(Start cutting path id: path3154)
(Change tool to Default tool)

G00 Z5.000000
G00 X16.602075 Y25.272297

G01 Z-1.000000 F100.0(Penetrate)
G01 X18.126075 Y25.272297 Z-1.000000 F400.000000
G01 X18.126075 Y24.510297 Z-1.000000
G01 X16.602075 Y24.510297 Z-1.000000
G01 X16.602075 Y25.272297 Z-1.000000
G00 Z5.000000

(End cutting path id: path3154)


(Start cutting path id: path3150)
(Change tool to Default tool)

G00 Z5.000000
G00 X16.602075 Y29.082297

G01 Z-1.000000 F100.0(Penetrate)
G01 X18.126075 Y29.082297 Z-1.000000 F400.000000
G01 X18.126075 Y28.320297 Z-1.000000
G01 X16.602075 Y28.320297 Z-1.000000
G01 X16.602075 Y29.082297 Z-1.000000
G00 Z5.000000

(End cutting path id: path3150)


(Start cutting path id: path3128)
(Change tool to Default tool)

G00 Z5.000000
G00 X18.304228 Y32.626303

G01 Z-1.000000 F100.0(Penetrate)
G01 X19.604214 Y32.626303 Z-1.000000 F400.000000
G01 X19.604214 Y31.126292 Z-1.000000
G01 X18.304228 Y31.126292 Z-1.000000
G01 X18.304228 Y32.626303 Z-1.000000
G00 Z5.000000

(End cutting path id: path3128)


(Start cutting path id: path3130)
(Change tool to Default tool)

G00 Z5.000000
G00 X20.203936 Y32.626303

G01 Z-1.000000 F100.0(Penetrate)
G01 X21.503922 Y32.626303 Z-1.000000 F400.000000
G01 X21.503922 Y31.126292 Z-1.000000
G01 X20.203936 Y31.126292 Z-1.000000
G01 X20.203936 Y32.626303 Z-1.000000
G00 Z5.000000

(End cutting path id: path3130)


(Start cutting path id: path3102)
(Change tool to Default tool)

G00 Z5.000000
G00 X19.558000 Y35.490153

G01 Z-1.000000 F100.0(Penetrate)
G01 X20.758150 Y35.490153 Z-1.000000 F400.000000
G01 X20.758150 Y34.290003 Z-1.000000
G01 X19.558000 Y34.290003 Z-1.000000
G01 X19.558000 Y35.490153 Z-1.000000
G00 Z5.000000

(End cutting path id: path3102)


(Start cutting path id: path3100)
(Change tool to Default tool)

G00 Z5.000000
G00 X19.558000 Y37.590239

G01 Z-1.000000 F100.0(Penetrate)
G01 X20.758150 Y37.590239 Z-1.000000 F400.000000
G01 X20.758150 Y36.390089 Z-1.000000
G01 X19.558000 Y36.390089 Z-1.000000
G01 X19.558000 Y37.590239 Z-1.000000
G00 Z5.000000

(End cutting path id: path3100)


(Start cutting path id: path3098)
(Change tool to Default tool)

G00 Z5.000000
G00 X17.018000 Y40.570153

G01 Z-1.000000 F100.0(Penetrate)
G01 X18.218150 Y40.570153 Z-1.000000 F400.000000
G01 X18.218150 Y39.370003 Z-1.000000
G01 X17.018000 Y39.370003 Z-1.000000
G01 X17.018000 Y40.570153 Z-1.000000
G00 Z5.000000

(End cutting path id: path3098)


(Start cutting path id: path3096)
(Change tool to Default tool)

G00 Z5.000000
G00 X17.018000 Y42.670239

G01 Z-1.000000 F100.0(Penetrate)
G01 X18.218150 Y42.670239 Z-1.000000 F400.000000
G01 X18.218150 Y41.470089 Z-1.000000
G01 X17.018000 Y41.470089 Z-1.000000
G01 X17.018000 Y42.670239 Z-1.000000
G00 Z5.000000

(End cutting path id: path3096)


(Start cutting path id: path3094)
(Change tool to Default tool)

G00 Z5.000000
G00 X13.208000 Y43.110153

G01 Z-1.000000 F100.0(Penetrate)
G01 X14.408150 Y43.110153 Z-1.000000 F400.000000
G01 X14.408150 Y41.910003 Z-1.000000
G01 X13.208000 Y41.910003 Z-1.000000
G01 X13.208000 Y43.110153 Z-1.000000
G00 Z5.000000

(End cutting path id: path3094)


(Start cutting path id: path3092)
(Change tool to Default tool)

G00 Z5.000000
G00 X13.208000 Y45.210239

G01 Z-1.000000 F100.0(Penetrate)
G01 X14.408150 Y45.210239 Z-1.000000 F400.000000
G01 X14.408150 Y44.010089 Z-1.000000
G01 X13.208000 Y44.010089 Z-1.000000
G01 X13.208000 Y45.210239 Z-1.000000
G00 Z5.000000

(End cutting path id: path3092)


(Start cutting path id: path3090)
(Change tool to Default tool)

G00 Z5.000000
G00 X8.636000 Y46.920153

G01 Z-1.000000 F100.0(Penetrate)
G01 X9.836150 Y46.920153 Z-1.000000 F400.000000
G01 X9.836150 Y45.720003 Z-1.000000
G01 X8.636000 Y45.720003 Z-1.000000
G01 X8.636000 Y46.920153 Z-1.000000
G00 Z5.000000

(End cutting path id: path3090)


(Start cutting path id: path3088)
(Change tool to Default tool)

G00 Z5.000000
G00 X8.636000 Y49.020239

G01 Z-1.000000 F100.0(Penetrate)
G01 X9.836150 Y49.020239 Z-1.000000 F400.000000
G01 X9.836150 Y47.820089 Z-1.000000
G01 X8.636000 Y47.820089 Z-1.000000
G01 X8.636000 Y49.020239 Z-1.000000
G00 Z5.000000

(End cutting path id: path3088)


(Start cutting path id: path3084)
(Change tool to Default tool)

G00 Z5.000000
G00 X5.080000 Y46.480239

G01 Z-1.000000 F100.0(Penetrate)
G01 X6.280150 Y46.480239 Z-1.000000 F400.000000
G01 X6.280150 Y45.280089 Z-1.000000
G01 X5.080000 Y45.280089 Z-1.000000
G01 X5.080000 Y46.480239 Z-1.000000
G00 Z5.000000

(End cutting path id: path3084)


(Start cutting path id: path3086)
(Change tool to Default tool)

G00 Z5.000000
G00 X5.080000 Y44.380153

G01 Z-1.000000 F100.0(Penetrate)
G01 X6.280150 Y44.380153 Z-1.000000 F400.000000
G01 X6.280150 Y43.180003 Z-1.000000
G01 X5.080000 Y43.180003 Z-1.000000
G01 X5.080000 Y44.380153 Z-1.000000
G00 Z5.000000

(End cutting path id: path3086)


(Start cutting path id: path3080)
(Change tool to Default tool)

G00 Z5.000000
G00 X1.524000 Y42.670239

G01 Z-1.000000 F100.0(Penetrate)
G01 X2.724150 Y42.670239 Z-1.000000 F400.000000
G01 X2.724150 Y41.470089 Z-1.000000
G01 X1.524000 Y41.470089 Z-1.000000
G01 X1.524000 Y42.670239 Z-1.000000
G00 Z5.000000

(End cutting path id: path3080)


(Start cutting path id: path3082)
(Change tool to Default tool)

G00 Z5.000000
G00 X1.524000 Y40.570153

G01 Z-1.000000 F100.0(Penetrate)
G01 X2.724150 Y40.570153 Z-1.000000 F400.000000
G01 X2.724150 Y39.370003 Z-1.000000
G01 X1.524000 Y39.370003 Z-1.000000
G01 X1.524000 Y40.570153 Z-1.000000
G00 Z5.000000

(End cutting path id: path3082)


(Start cutting path id: path3076)
(Change tool to Default tool)

G00 Z5.000000
G00 X0.000000 Y35.304239

G01 Z-1.000000 F100.0(Penetrate)
G01 X1.200150 Y35.304239 Z-1.000000 F400.000000
G01 X1.200150 Y34.104089 Z-1.000000
G01 X0.000000 Y34.104089 Z-1.000000
G01 X0.000000 Y35.304239 Z-1.000000
G00 Z5.000000

(End cutting path id: path3076)


(Start cutting path id: path3078)
(Change tool to Default tool)

G00 Z5.000000
G00 X0.000000 Y33.204153

G01 Z-1.000000 F100.0(Penetrate)
G01 X1.200150 Y33.204153 Z-1.000000 F400.000000
G01 X1.200150 Y32.004003 Z-1.000000
G01 X0.000000 Y32.004003 Z-1.000000
G01 X0.000000 Y33.204153 Z-1.000000
G00 Z5.000000

(End cutting path id: path3078)


(Start cutting path id: path3072)
(Change tool to Default tool)

G00 Z5.000000
G00 X2.032000 Y26.160239

G01 Z-1.000000 F100.0(Penetrate)
G01 X3.232150 Y26.160239 Z-1.000000 F400.000000
G01 X3.232150 Y24.960089 Z-1.000000
G01 X2.032000 Y24.960089 Z-1.000000
G01 X2.032000 Y26.160239 Z-1.000000
G00 Z5.000000

(End cutting path id: path3072)


(Start cutting path id: path3074)
(Change tool to Default tool)

G00 Z5.000000
G00 X2.032000 Y24.060153

G01 Z-1.000000 F100.0(Penetrate)
G01 X3.232150 Y24.060153 Z-1.000000 F400.000000
G01 X3.232150 Y22.860003 Z-1.000000
G01 X2.032000 Y22.860003 Z-1.000000
G01 X2.032000 Y24.060153 Z-1.000000
G00 Z5.000000

(End cutting path id: path3074)


(Start cutting path id: path3068)
(Change tool to Default tool)

G00 Z5.000000
G00 X6.858000 Y18.540239

G01 Z-1.000000 F100.0(Penetrate)
G01 X8.058150 Y18.540239 Z-1.000000 F400.000000
G01 X8.058150 Y17.340089 Z-1.000000
G01 X6.858000 Y17.340089 Z-1.000000
G01 X6.858000 Y18.540239 Z-1.000000
G00 Z5.000000

(End cutting path id: path3068)


(Start cutting path id: path3070)
(Change tool to Default tool)

G00 Z5.000000
G00 X6.858000 Y16.440153

G01 Z-1.000000 F100.0(Penetrate)
G01 X8.058150 Y16.440153 Z-1.000000 F400.000000
G01 X8.058150 Y15.240003 Z-1.000000
G01 X6.858000 Y15.240003 Z-1.000000
G01 X6.858000 Y16.440153 Z-1.000000
G00 Z5.000000

(End cutting path id: path3070)


(Start cutting path id: path3064)
(Change tool to Default tool)

G00 Z5.000000
G00 X11.938000 Y10.920239

G01 Z-1.000000 F100.0(Penetrate)
G01 X13.138150 Y10.920239 Z-1.000000 F400.000000
G01 X13.138150 Y9.720089 Z-1.000000
G01 X11.938000 Y9.720089 Z-1.000000
G01 X11.938000 Y10.920239 Z-1.000000
G00 Z5.000000

(End cutting path id: path3064)


(Start cutting path id: path3066)
(Change tool to Default tool)

G00 Z5.000000
G00 X11.938000 Y8.820153

G01 Z-1.000000 F100.0(Penetrate)
G01 X13.138150 Y8.820153 Z-1.000000 F400.000000
G01 X13.138150 Y7.620003 Z-1.000000
G01 X11.938000 Y7.620003 Z-1.000000
G01 X11.938000 Y8.820153 Z-1.000000
G00 Z5.000000

(End cutting path id: path3066)


(Start cutting path id: path3142)
(Change tool to Default tool)

G00 Z5.000000
G00 X15.194139 Y17.306222

G01 Z-1.000000 F100.0(Penetrate)
G01 X16.994011 Y17.306222 Z-1.000000 F400.000000
G01 X16.994011 Y15.706375 Z-1.000000
G01 X15.194139 Y15.706375 Z-1.000000
G01 X15.194139 Y17.306222 Z-1.000000
G00 Z5.000000

(End cutting path id: path3142)


(Start cutting path id: path3140)
(Change tool to Default tool)

G00 Z5.000000
G00 X15.194139 Y20.106220

G01 Z-1.000000 F100.0(Penetrate)
G01 X16.994011 Y20.106220 Z-1.000000 F400.000000
G01 X16.994011 Y18.506372 Z-1.000000
G01 X15.194139 Y18.506372 Z-1.000000
G01 X15.194139 Y20.106220 Z-1.000000
G00 Z5.000000

(End cutting path id: path3140)


(Start cutting path id: path3104)
(Change tool to Default tool)

G00 Z5.000000
G00 X17.948275 Y15.886997

G01 Z-1.000000 F100.0(Penetrate)
G01 X18.557875 Y15.886997 Z-1.000000 F400.000000
G01 X18.557875 Y13.677197 Z-1.000000
G01 X17.948275 Y13.677197 Z-1.000000
G01 X17.948275 Y15.886997 Z-1.000000
G00 Z5.000000

(End cutting path id: path3104)


(Start cutting path id: path3106)
(Change tool to Default tool)

G00 Z5.000000
G00 X19.218275 Y15.886997

G01 Z-1.000000 F100.0(Penetrate)
G01 X19.827875 Y15.886997 Z-1.000000 F400.000000
G01 X19.827875 Y13.677197 Z-1.000000
G01 X19.218275 Y13.677197 Z-1.000000
G01 X19.218275 Y15.886997 Z-1.000000
G00 Z5.000000

(End cutting path id: path3106)


(Start cutting path id: path3108)
(Change tool to Default tool)

G00 Z5.000000
G00 X20.488275 Y15.886997

G01 Z-1.000000 F100.0(Penetrate)
G01 X21.097875 Y15.886997 Z-1.000000 F400.000000
G01 X21.097875 Y13.677197 Z-1.000000
G01 X20.488275 Y13.677197 Z-1.000000
G01 X20.488275 Y15.886997 Z-1.000000
G00 Z5.000000

(End cutting path id: path3108)


(Start cutting path id: path3110)
(Change tool to Default tool)

G00 Z5.000000
G00 X21.758275 Y15.886997

G01 Z-1.000000 F100.0(Penetrate)
G01 X22.367875 Y15.886997 Z-1.000000 F400.000000
G01 X22.367875 Y13.677197 Z-1.000000
G01 X21.758275 Y13.677197 Z-1.000000
G01 X21.758275 Y15.886997 Z-1.000000
G00 Z5.000000

(End cutting path id: path3110)


(Start cutting path id: path3146)
(Change tool to Default tool)

G00 Z5.000000
G00 X24.454203 Y17.964153

G01 Z-1.000000 F100.0(Penetrate)
G01 X25.854378 Y17.964153 Z-1.000000 F400.000000
G01 X25.854378 Y16.964028 Z-1.000000
G01 X24.454203 Y16.964028 Z-1.000000
G01 X24.454203 Y17.964153 Z-1.000000
G00 Z5.000000

(End cutting path id: path3146)


(Start cutting path id: path3148)
(Change tool to Default tool)

G00 Z5.000000
G00 X24.454203 Y19.864214

G01 Z-1.000000 F100.0(Penetrate)
G01 X25.854378 Y19.864214 Z-1.000000 F400.000000
G01 X25.854378 Y18.864089 Z-1.000000
G01 X24.454203 Y18.864089 Z-1.000000
G01 X24.454203 Y19.864214 Z-1.000000
G00 Z5.000000

(End cutting path id: path3148)


(Start cutting path id: path3144)
(Change tool to Default tool)

G00 Z5.000000
G00 X26.654125 Y18.914183

G01 Z-1.000000 F100.0(Penetrate)
G01 X28.054300 Y18.914183 Z-1.000000 F400.000000
G01 X28.054300 Y17.914058 Z-1.000000
G01 X26.654125 Y17.914058 Z-1.000000
G01 X26.654125 Y18.914183 Z-1.000000
G00 Z5.000000

(End cutting path id: path3144)


(Start cutting path id: path3052)
(Change tool to Default tool)

G00 Z5.000000
G00 X32.258000 Y18.540239

G01 Z-1.000000 F100.0(Penetrate)
G01 X33.458150 Y18.540239 Z-1.000000 F400.000000
G01 X33.458150 Y17.340089 Z-1.000000
G01 X32.258000 Y17.340089 Z-1.000000
G01 X32.258000 Y18.540239 Z-1.000000
G00 Z5.000000

(End cutting path id: path3052)


(Start cutting path id: path3054)
(Change tool to Default tool)

G00 Z5.000000
G00 X32.258000 Y16.440153

G01 Z-1.000000 F100.0(Penetrate)
G01 X33.458150 Y16.440153 Z-1.000000 F400.000000
G01 X33.458150 Y15.240003 Z-1.000000
G01 X32.258000 Y15.240003 Z-1.000000
G01 X32.258000 Y16.440153 Z-1.000000
G00 Z5.000000

(End cutting path id: path3054)


(Start cutting path id: path3056)
(Change tool to Default tool)

G00 Z5.000000
G00 X27.178000 Y10.920239

G01 Z-1.000000 F100.0(Penetrate)
G01 X28.378150 Y10.920239 Z-1.000000 F400.000000
G01 X28.378150 Y9.720089 Z-1.000000
G01 X27.178000 Y9.720089 Z-1.000000
G01 X27.178000 Y10.920239 Z-1.000000
G00 Z5.000000

(End cutting path id: path3056)


(Start cutting path id: path3058)
(Change tool to Default tool)

G00 Z5.000000
G00 X27.178000 Y8.820153

G01 Z-1.000000 F100.0(Penetrate)
G01 X28.378150 Y8.820153 Z-1.000000 F400.000000
G01 X28.378150 Y7.620003 Z-1.000000
G01 X27.178000 Y7.620003 Z-1.000000
G01 X27.178000 Y8.820153 Z-1.000000
G00 Z5.000000

(End cutting path id: path3058)


(Start cutting path id: path3060)
(Change tool to Default tool)

G00 Z5.000000
G00 X19.558000 Y3.300239

G01 Z-1.000000 F100.0(Penetrate)
G01 X20.758150 Y3.300239 Z-1.000000 F400.000000
G01 X20.758150 Y2.100089 Z-1.000000
G01 X19.558000 Y2.100089 Z-1.000000
G01 X19.558000 Y3.300239 Z-1.000000
G00 Z5.000000

(End cutting path id: path3060)


(Start cutting path id: path3062)
(Change tool to Default tool)

G00 Z5.000000
G00 X19.558000 Y1.200153

G01 Z-1.000000 F100.0(Penetrate)
G01 X20.758150 Y1.200153 Z-1.000000 F400.000000
G01 X20.758150 Y0.000003 Z-1.000000
G01 X19.558000 Y0.000003 Z-1.000000
G01 X19.558000 Y1.200153 Z-1.000000
G00 Z5.000000

(End cutting path id: path3062)


(Start cutting path id: path3152)
(Change tool to Default tool)

G00 Z5.000000
G00 X21.682075 Y29.082297

G01 Z-1.000000 F100.0(Penetrate)
G01 X23.206075 Y29.082297 Z-1.000000 F400.000000
G01 X23.206075 Y28.320297 Z-1.000000
G01 X21.682075 Y28.320297 Z-1.000000
G01 X21.682075 Y29.082297 Z-1.000000
G00 Z5.000000

(End cutting path id: path3152)


(Start cutting path id: path3132)
(Change tool to Default tool)

G00 Z5.000000
G00 X24.400228 Y35.420303

G01 Z-1.000000 F100.0(Penetrate)
G01 X25.700214 Y35.420303 Z-1.000000 F400.000000
G01 X25.700214 Y33.920292 Z-1.000000
G01 X24.400228 Y33.920292 Z-1.000000
G01 X24.400228 Y35.420303 Z-1.000000
G00 Z5.000000

(End cutting path id: path3132)


(Start cutting path id: path3134)
(Change tool to Default tool)

G00 Z5.000000
G00 X26.299936 Y35.420303

G01 Z-1.000000 F100.0(Penetrate)
G01 X27.599922 Y35.420303 Z-1.000000 F400.000000
G01 X27.599922 Y33.920292 Z-1.000000
G01 X26.299936 Y33.920292 Z-1.000000
G01 X26.299936 Y35.420303 Z-1.000000
G00 Z5.000000

(End cutting path id: path3134)


(Start cutting path id: path3136)
(Change tool to Default tool)

G00 Z5.000000
G00 X30.242228 Y39.230303

G01 Z-1.000000 F100.0(Penetrate)
G01 X31.542214 Y39.230303 Z-1.000000 F400.000000
G01 X31.542214 Y37.730292 Z-1.000000
G01 X30.242228 Y37.730292 Z-1.000000
G01 X30.242228 Y39.230303 Z-1.000000
G00 Z5.000000

(End cutting path id: path3136)


(Start cutting path id: path3138)
(Change tool to Default tool)

G00 Z5.000000
G00 X32.141936 Y39.230303

G01 Z-1.000000 F100.0(Penetrate)
G01 X33.441922 Y39.230303 Z-1.000000 F400.000000
G01 X33.441922 Y37.730292 Z-1.000000
G01 X32.141936 Y37.730292 Z-1.000000
G01 X32.141936 Y39.230303 Z-1.000000
G00 Z5.000000

(End cutting path id: path3138)


(Start cutting path id: path3038)
(Change tool to Default tool)

G00 Z5.000000
G00 X33.528000 Y44.380153

G01 Z-1.000000 F100.0(Penetrate)
G01 X34.728150 Y44.380153 Z-1.000000 F400.000000
G01 X34.728150 Y43.180003 Z-1.000000
G01 X33.528000 Y43.180003 Z-1.000000
G01 X33.528000 Y44.380153 Z-1.000000
G00 Z5.000000

(End cutting path id: path3038)


(Start cutting path id: path3036)
(Change tool to Default tool)

G00 Z5.000000
G00 X33.528000 Y46.480239

G01 Z-1.000000 F100.0(Penetrate)
G01 X34.728150 Y46.480239 Z-1.000000 F400.000000
G01 X34.728150 Y45.280089 Z-1.000000
G01 X33.528000 Y45.280089 Z-1.000000
G01 X33.528000 Y46.480239 Z-1.000000
G00 Z5.000000

(End cutting path id: path3036)


(Start cutting path id: path3034)
(Change tool to Default tool)

G00 Z5.000000
G00 X29.718000 Y46.920153

G01 Z-1.000000 F100.0(Penetrate)
G01 X30.918150 Y46.920153 Z-1.000000 F400.000000
G01 X30.918150 Y45.720003 Z-1.000000
G01 X29.718000 Y45.720003 Z-1.000000
G01 X29.718000 Y46.920153 Z-1.000000
G00 Z5.000000

(End cutting path id: path3034)


(Start cutting path id: path3032)
(Change tool to Default tool)

G00 Z5.000000
G00 X29.718000 Y49.020239

G01 Z-1.000000 F100.0(Penetrate)
G01 X30.918150 Y49.020239 Z-1.000000 F400.000000
G01 X30.918150 Y47.820089 Z-1.000000
G01 X29.718000 Y47.820089 Z-1.000000
G01 X29.718000 Y49.020239 Z-1.000000
G00 Z5.000000

(End cutting path id: path3032)


(Start cutting path id: path3028)
(Change tool to Default tool)

G00 Z5.000000
G00 X25.908000 Y45.210239

G01 Z-1.000000 F100.0(Penetrate)
G01 X27.108150 Y45.210239 Z-1.000000 F400.000000
G01 X27.108150 Y44.010089 Z-1.000000
G01 X25.908000 Y44.010089 Z-1.000000
G01 X25.908000 Y45.210239 Z-1.000000
G00 Z5.000000

(End cutting path id: path3028)


(Start cutting path id: path3030)
(Change tool to Default tool)

G00 Z5.000000
G00 X25.908000 Y43.110153

G01 Z-1.000000 F100.0(Penetrate)
G01 X27.108150 Y43.110153 Z-1.000000 F400.000000
G01 X27.108150 Y41.910003 Z-1.000000
G01 X25.908000 Y41.910003 Z-1.000000
G01 X25.908000 Y43.110153 Z-1.000000
G00 Z5.000000

(End cutting path id: path3030)


(Start cutting path id: path3024)
(Change tool to Default tool)

G00 Z5.000000
G00 X22.098000 Y42.670239

G01 Z-1.000000 F100.0(Penetrate)
G01 X23.298150 Y42.670239 Z-1.000000 F400.000000
G01 X23.298150 Y41.470089 Z-1.000000
G01 X22.098000 Y41.470089 Z-1.000000
G01 X22.098000 Y42.670239 Z-1.000000
G00 Z5.000000

(End cutting path id: path3024)


(Start cutting path id: path3026)
(Change tool to Default tool)

G00 Z5.000000
G00 X22.098000 Y40.570153

G01 Z-1.000000 F100.0(Penetrate)
G01 X23.298150 Y40.570153 Z-1.000000 F400.000000
G01 X23.298150 Y39.370003 Z-1.000000
G01 X22.098000 Y39.370003 Z-1.000000
G01 X22.098000 Y40.570153 Z-1.000000
G00 Z5.000000

(End cutting path id: path3026)


(Start cutting path id: path3126)
(Change tool to Default tool)

G00 Z5.000000
G00 X15.123936 Y35.674303

G01 Z-1.000000 F100.0(Penetrate)
G01 X16.423922 Y35.674303 Z-1.000000 F400.000000
G01 X16.423922 Y34.174292 Z-1.000000
G01 X15.123936 Y34.174292 Z-1.000000
G01 X15.123936 Y35.674303 Z-1.000000
G00 Z5.000000

(End cutting path id: path3126)


(Start cutting path id: path3124)
(Change tool to Default tool)

G00 Z5.000000
G00 X13.224228 Y35.674303

G01 Z-1.000000 F100.0(Penetrate)
G01 X14.524214 Y35.674303 Z-1.000000 F400.000000
G01 X14.524214 Y34.174292 Z-1.000000
G01 X13.224228 Y34.174292 Z-1.000000
G01 X13.224228 Y35.674303 Z-1.000000
G00 Z5.000000

(End cutting path id: path3124)


(Start cutting path id: path3122)
(Change tool to Default tool)

G00 Z5.000000
G00 X10.043936 Y38.214303

G01 Z-1.000000 F100.0(Penetrate)
G01 X11.343922 Y38.214303 Z-1.000000 F400.000000
G01 X11.343922 Y36.714292 Z-1.000000
G01 X10.043936 Y36.714292 Z-1.000000
G01 X10.043936 Y38.214303 Z-1.000000
G00 Z5.000000

(End cutting path id: path3122)


(Start cutting path id: path3120)
(Change tool to Default tool)

G00 Z5.000000
G00 X8.144228 Y38.214303

G01 Z-1.000000 F100.0(Penetrate)
G01 X9.444214 Y38.214303 Z-1.000000 F400.000000
G01 X9.444214 Y36.714292 Z-1.000000
G01 X8.144228 Y36.714292 Z-1.000000
G01 X8.144228 Y38.214303 Z-1.000000
G00 Z5.000000

(End cutting path id: path3120)


(Start cutting path id: path3042)
(Change tool to Default tool)

G00 Z5.000000
G00 X37.338000 Y40.570153

G01 Z-1.000000 F100.0(Penetrate)
G01 X38.538150 Y40.570153 Z-1.000000 F400.000000
G01 X38.538150 Y39.370003 Z-1.000000
G01 X37.338000 Y39.370003 Z-1.000000
G01 X37.338000 Y40.570153 Z-1.000000
G00 Z5.000000

(End cutting path id: path3042)


(Start cutting path id: path3040)
(Change tool to Default tool)

G00 Z5.000000
G00 X37.338000 Y42.670239

G01 Z-1.000000 F100.0(Penetrate)
G01 X38.538150 Y42.670239 Z-1.000000 F400.000000
G01 X38.538150 Y41.470089 Z-1.000000
G01 X37.338000 Y41.470089 Z-1.000000
G01 X37.338000 Y42.670239 Z-1.000000
G00 Z5.000000

(End cutting path id: path3040)


(Start cutting path id: path3044)
(Change tool to Default tool)

G00 Z5.000000
G00 X39.878000 Y35.050239

G01 Z-1.000000 F100.0(Penetrate)
G01 X41.078150 Y35.050239 Z-1.000000 F400.000000
G01 X41.078150 Y33.850089 Z-1.000000
G01 X39.878000 Y33.850089 Z-1.000000
G01 X39.878000 Y35.050239 Z-1.000000
G00 Z5.000000

(End cutting path id: path3044)


(Start cutting path id: path3046)
(Change tool to Default tool)

G00 Z5.000000
G00 X39.878000 Y32.950153

G01 Z-1.000000 F100.0(Penetrate)
G01 X41.078150 Y32.950153 Z-1.000000 F400.000000
G01 X41.078150 Y31.750003 Z-1.000000
G01 X39.878000 Y31.750003 Z-1.000000
G01 X39.878000 Y32.950153 Z-1.000000
G00 Z5.000000

(End cutting path id: path3046)


(Start cutting path id: path3048)
(Change tool to Default tool)

G00 Z5.000000
G00 X38.354000 Y26.160239

G01 Z-1.000000 F100.0(Penetrate)
G01 X39.554150 Y26.160239 Z-1.000000 F400.000000
G01 X39.554150 Y24.960089 Z-1.000000
G01 X38.354000 Y24.960089 Z-1.000000
G01 X38.354000 Y26.160239 Z-1.000000
G00 Z5.000000

(End cutting path id: path3048)


(Start cutting path id: path3050)
(Change tool to Default tool)

G00 Z5.000000
G00 X38.354000 Y24.060153

G01 Z-1.000000 F100.0(Penetrate)
G01 X39.554150 Y24.060153 Z-1.000000 F400.000000
G01 X39.554150 Y22.860003 Z-1.000000
G01 X38.354000 Y22.860003 Z-1.000000
G01 X38.354000 Y24.060153 Z-1.000000
G00 Z5.000000

(End cutting path id: path3050)


(Footer)
M5
G00 X0.0000 Y0.0000
M2
(Using default footer. To add your own footer create file "footer" in the output dir.)
(end)
%