;Generated with Cura_SteamEngine 13.12
M109 T0 S230.000000
T0
;Sliced at: Tue 28-01-2014 15:18:12
;Basic settings: Layer height: 0.05 Walls: 0.4 Fill: 15
;Print time: #P_TIME#
;Filament used: #F_AMNT#m #F_WGHT#g
;Filament cost: #F_COST#
;M190 S70 ;Uncomment to add your own bed temperature line
;M109 S230 ;Uncomment to add your own temperature line
G21        ;metric values
G90        ;absolute positioning
M107       ;start with the fan off
G28 X0 Y0  ;move X/Y to min endstops
G28 Z0     ;move Z to min endstops
G1 Z15.0 F10800 ;move the platform down 15mm
G92 E0                  ;zero the extruded length
G1 F200 E3              ;extrude 3mm of feed stock
G92 E0                  ;zero the extruded length again
G1 F10800
;Put printing message on LCD screen
M117 Printing...

;Layer count: 4
;LAYER:0
M107
G0 F4320 X54.30 Y51.17 Z0.30
;TYPE:SKIRT
G1 F2400 E0.00000
G1 F1200 X56.17 Y49.30 E0.04950
G1 X148.82 Y49.30 E1.78016
G1 X150.70 Y51.17 E1.82967
G1 X150.70 Y153.82 E3.74712
G1 X148.82 Y155.70 E3.79665
G1 X56.17 Y155.70 E5.52730
G1 X54.30 Y153.82 E5.57681
G1 X54.30 Y51.17 E7.49426
G1 F2400 E2.99426
G0 F4320 X57.70 Y52.70
;TYPE:WALL-OUTER
G1 F2400 E7.49426
G1 F1200 X147.30 Y52.70 E9.16792
G1 X147.30 Y152.30 E11.02837
G1 X57.70 Y152.30 E12.70203
G1 X57.70 Y52.70 E14.56248
G0 F4320 X58.00 Y52.91
G0 X82.68 Y75.23
G0 X82.98 Y75.23
G1 F1200 X82.98 Y77.74 E14.60931
G1 X83.11 Y77.86 E14.61260
G1 X85.11 Y77.67 E14.65016
G1 X85.22 Y77.55 E14.65305
G1 X85.22 Y75.42 E14.69286
G1 X85.11 Y75.31 E14.69575
G1 X83.11 Y75.11 E14.73330
G1 X82.98 Y75.23 E14.73659
G0 F4320 X82.68 Y75.23
G0 X82.60 Y77.91
G0 X83.10 Y78.53
G0 X83.10 Y78.83
G1 F1200 X82.98 Y78.94 E14.73968
G1 X82.98 Y81.08 E14.77966
G1 X83.10 Y81.20 E14.78276
G1 X85.24 Y81.20 E14.82277
G1 X85.36 Y81.08 E14.82589
G1 X85.36 Y78.94 E14.86586
G1 X85.24 Y78.83 E14.86897
G1 X83.10 Y78.83 E14.90898
G0 F4320 X83.10 Y78.53
G0 X85.40 Y78.44
G0 X85.74 Y78.79
G0 X85.74 Y81.24
G0 X85.40 Y81.59
G0 X88.46 Y88.41
G0 X88.46 Y88.71
G1 F1200 X88.34 Y88.82 E14.91207
G1 X88.34 Y91.81 E14.96786
G1 X88.46 Y91.93 E14.97097
G1 X91.45 Y91.93 E15.02678
G1 X91.57 Y91.81 E15.02990
G1 X91.57 Y88.82 E15.08569
G1 X91.45 Y88.71 E15.08880
G1 X88.46 Y88.71 E15.14461
G0 F4320 X88.46 Y88.41
G0 X91.61 Y88.32
G0 X91.95 Y88.67
G0 X91.95 Y91.97
G0 X91.61 Y92.31
G0 X88.46 Y93.20
G0 X88.46 Y93.50
G1 F1200 X88.34 Y93.62 E15.14770
G1 X88.34 Y96.32 E15.19823
G1 X88.46 Y96.44 E15.20133
G1 X91.45 Y96.44 E15.25715
G1 X91.57 Y96.32 E15.26026
G1 X91.57 Y93.62 E15.31079
G1 X91.45 Y93.50 E15.31390
G1 X88.46 Y93.50 E15.36971
G0 F4320 X88.46 Y93.20
G0 X91.61 Y93.12
G0 X91.95 Y93.46
G0 X92.56 Y96.72
G0 X92.86 Y96.72
G1 F1200 X92.86 Y100.56 E15.44134
G1 X92.98 Y100.68 E15.44445
G1 X94.27 Y100.68 E15.46860
G1 X94.39 Y100.56 E15.47172
G1 X94.39 Y96.72 E15.54335
G1 X94.27 Y96.61 E15.54646
G1 X92.98 Y96.61 E15.57061
G1 X92.86 Y96.72 E15.57370
G0 F4320 X92.56 Y96.72
G0 X92.82 Y96.22
G0 X94.43 Y96.22
G0 X94.82 Y96.72
G0 X95.12 Y96.72
G1 F1200 X95.12 Y100.56 E15.64533
G1 X95.24 Y100.68 E15.64844
G1 X96.25 Y100.68 E15.66732
G1 X96.36 Y100.56 E15.67044
G1 X96.36 Y96.72 E15.74207
G1 X96.25 Y96.61 E15.74518
G1 X95.24 Y96.61 E15.76406
G1 X95.12 Y96.72 E15.76715
G0 F4320 X94.82 Y96.72
G0 X95.08 Y96.22
G0 X96.40 Y96.22
G0 X96.79 Y96.72
G0 X97.09 Y96.72
G1 F1200 X97.09 Y100.56 E15.83879
G1 X97.21 Y100.68 E15.84189
G1 X98.50 Y100.68 E15.86608
G1 X98.62 Y100.56 E15.86920
G1 X98.62 Y96.72 E15.94083
G1 X98.50 Y96.61 E15.94394
G1 X97.21 Y96.61 E15.96813
G1 X97.09 Y96.72 E15.97122
G0 F4320 X96.79 Y96.72
G0 X97.05 Y96.22
G0 X98.66 Y96.22
G0 X99.05 Y96.72
G0 X99.35 Y96.72
G1 F1200 X99.35 Y100.56 E16.04285
G1 X99.47 Y100.68 E16.04596
G1 X100.48 Y100.68 E16.06486
G1 X100.60 Y100.56 E16.06798
G1 X100.60 Y96.72 E16.13961
G1 X100.48 Y96.61 E16.14272
G1 X99.47 Y96.61 E16.16162
G1 X99.35 Y96.72 E16.16471
G0 F4320 X99.05 Y96.72
G0 X99.31 Y96.22
G0 X100.64 Y96.22
G0 X103.57 Y96.04
G0 X103.87 Y96.04
G1 F1200 X103.98 Y96.16 E16.16782
G1 X106.41 Y96.16 E16.21306
G1 X106.52 Y96.04 E16.21617
G1 X106.52 Y94.19 E16.25088
G1 X106.41 Y94.07 E16.25398
G1 X103.98 Y94.07 E16.29922
G1 X103.87 Y94.19 E16.30232
G1 X103.87 Y96.04 E16.33702
G0 F4320 X103.57 Y96.04
G0 X103.48 Y94.03
G0 X103.79 Y93.32
G0 X104.00 Y93.10
G1 F1200 X106.27 Y92.91 E16.37964
G1 X106.37 Y92.81 E16.38231
G1 X106.57 Y91.10 E16.41452
G1 X106.45 Y90.96 E16.41787
G1 X103.98 Y90.96 E16.46393
G1 X103.87 Y91.08 E16.46702
G1 X103.87 Y92.98 E16.50246
G1 X104.00 Y93.10 E16.50572
G0 F4320 X103.79 Y93.32
G0 X106.44 Y93.29
G0 X107.24 Y92.49
G0 X107.54 Y92.49
G1 F1200 X107.54 Y94.35 E16.54043
G1 X107.65 Y94.47 E16.54353
G1 X110.07 Y94.47 E16.58877
G1 X110.19 Y94.35 E16.59189
G1 X110.19 Y92.49 E16.62660
G1 X110.07 Y92.38 E16.62970
G1 X107.65 Y92.38 E16.67494
G1 X107.54 Y92.49 E16.67803
G0 F4320 X107.24 Y92.49
G0 X107.15 Y94.51
G0 X107.82 Y98.00
G0 X107.82 Y98.30
G1 F1200 X105.11 Y98.30 E16.72858
G1 X105.00 Y98.42 E16.73167
G1 X105.00 Y100.56 E16.77168
G1 X105.11 Y100.68 E16.77478
G1 X107.82 Y100.68 E16.82533
G1 X107.94 Y100.56 E16.82845
G1 X107.94 Y98.42 E16.86846
G1 X107.82 Y98.30 E16.87156
G0 F4320 X107.82 Y98.00
G0 X108.32 Y98.26
G0 X108.32 Y100.72
G0 X107.82 Y101.11
G0 X107.82 Y101.41
G1 F1200 X105.07 Y101.41 E16.92285
G1 X104.95 Y101.54 E16.92613
G1 X105.14 Y103.81 E16.96881
G1 X105.25 Y103.92 E16.97156
G1 X107.81 Y104.10 E17.01949
G1 X107.94 Y103.98 E17.02274
G1 X107.94 Y101.52 E17.06869
G1 X107.82 Y101.41 E17.07179
G0 F4320 X107.82 Y101.11
G0 X104.90 Y101.02
G0 X104.56 Y101.40
G0 X102.31 Y103.50
G0 X102.01 Y103.50
G1 F1200 X101.89 Y103.38 E17.07490
G1 X99.19 Y103.38 E17.12541
G1 X99.07 Y103.50 E17.12850
G1 X99.07 Y105.07 E17.15794
G1 X99.19 Y105.19 E17.16104
G1 X101.89 Y105.19 E17.21155
G1 X102.01 Y105.07 E17.21467
G1 X102.01 Y103.50 E17.24411
G0 F4320 X102.31 Y103.50
G0 X102.39 Y105.23
G0 X101.89 Y109.57
G0 X101.89 Y109.87
G1 F1200 X99.19 Y109.87 E17.29461
G1 X99.07 Y109.99 E17.29770
G1 X99.07 Y111.28 E17.32186
G1 X99.19 Y111.40 E17.32496
G1 X101.89 Y111.40 E17.37547
G1 X102.01 Y111.28 E17.37859
G1 X102.01 Y109.99 E17.40274
G1 X101.89 Y109.87 E17.40584
G0 F4320 X101.89 Y109.57
G0 X102.39 Y109.83
G0 X102.39 Y111.44
G0 X102.05 Y111.79
G0 X99.07 Y114.09
G0 X99.07 Y114.39
G1 F1200 X96.93 Y114.39 E17.44582
G1 X96.81 Y114.51 E17.44891
G1 X96.81 Y117.21 E17.49942
G1 X96.93 Y117.33 E17.50252
G1 X99.07 Y117.33 E17.54249
G1 X99.19 Y117.21 E17.54561
G1 X99.19 Y114.51 E17.59612
G1 X99.07 Y114.39 E17.59922
G0 F4320 X99.07 Y114.09
G0 X96.77 Y114.00
G0 X96.38 Y114.51
G0 X96.08 Y114.51
G1 F1200 X95.96 Y114.39 E17.60233
G1 X93.54 Y114.39 E17.64757
G1 X93.42 Y114.51 E17.65066
G1 X93.42 Y117.21 E17.70117
G1 X93.54 Y117.33 E17.70427
G1 X95.96 Y117.33 E17.74951
G1 X96.08 Y117.21 E17.75263
G1 X96.08 Y114.51 E17.80314
G0 F4320 X96.38 Y114.51
G0 X93.42 Y111.70
G0 X93.42 Y111.40
G1 F1200 X93.54 Y111.28 E17.80626
G1 X93.54 Y109.99 E17.83041
G1 X93.42 Y109.87 E17.83351
G1 X90.72 Y109.87 E17.88404
G1 X90.60 Y109.99 E17.88713
G1 X90.60 Y111.28 E17.91128
G1 X90.72 Y111.40 E17.91439
G1 X93.42 Y111.40 E17.96491
G0 F4320 X93.42 Y111.70
G0 X90.56 Y111.79
G0 X90.22 Y111.44
G0 X90.22 Y109.83
G0 X90.56 Y109.49
G0 X93.42 Y105.49
G0 X93.42 Y105.19
G1 F1200 X93.54 Y105.07 E17.96803
G1 X93.54 Y103.50 E17.99747
G1 X93.42 Y103.38 E18.00057
G1 X90.72 Y103.38 E18.05110
G1 X90.60 Y103.50 E18.05419
G1 X90.60 Y105.07 E18.08363
G1 X90.72 Y105.19 E18.08673
G1 X93.42 Y105.19 E18.13726
G0 F4320 X93.42 Y105.49
G0 X93.93 Y111.44
G0 X93.58 Y111.79
G0 X90.60 Y119.17
G0 X90.60 Y119.47
G1 F1200 X88.46 Y119.47 E18.17725
G1 X88.34 Y119.58 E18.18034
G1 X88.34 Y122.29 E18.23087
G1 X88.46 Y122.41 E18.23398
G1 X90.60 Y122.41 E18.27397
G1 X90.72 Y122.29 E18.27708
G1 X90.72 Y119.58 E18.32761
G1 X90.60 Y119.47 E18.33072
G0 F4320 X90.60 Y119.17
G0 X88.30 Y119.08
G0 X87.92 Y119.58
G0 X87.62 Y119.58
G1 F1200 X87.50 Y119.47 E18.33382
G1 X85.07 Y119.47 E18.37908
G1 X84.96 Y119.58 E18.38217
G1 X84.96 Y122.29 E18.43270
G1 X85.07 Y122.41 E18.43580
G1 X87.50 Y122.41 E18.48106
G1 X87.62 Y122.29 E18.48418
G1 X87.62 Y119.58 E18.53471
G0 F4320 X87.92 Y119.58
G0 X88.00 Y122.45
G0 X87.66 Y122.79
G0 X84.92 Y122.79
G0 X82.55 Y123.82
G0 X82.25 Y123.82
G1 F1200 X82.13 Y123.70 E18.53781
G1 X79.99 Y123.70 E18.57778
G1 X79.88 Y123.82 E18.58087
G1 X79.88 Y126.52 E18.63140
G1 X79.99 Y126.64 E18.63451
G1 X82.13 Y126.64 E18.67448
G1 X82.25 Y126.52 E18.67760
G1 X82.25 Y123.82 E18.72812
G0 F4320 X82.55 Y123.82
G0 X82.64 Y126.68
G0 X82.29 Y127.03
G0 X79.83 Y127.03
G0 X79.49 Y126.68
G0 X79.45 Y123.82
G0 X79.15 Y123.82
G1 F1200 X79.03 Y123.70 E18.73123
G1 X76.61 Y123.70 E18.77649
G1 X76.49 Y123.82 E18.77958
G1 X76.49 Y126.52 E18.83011
G1 X76.61 Y126.64 E18.83321
G1 X79.03 Y126.64 E18.87847
G1 X79.15 Y126.52 E18.88159
G1 X79.15 Y123.82 E18.93211
G0 F4320 X79.45 Y123.82
G0 X79.53 Y126.68
G0 X79.19 Y127.03
G0 X73.67 Y134.13
G0 X73.67 Y134.43
G1 F1200 X71.81 Y134.43 E18.96675
G1 X71.71 Y134.50 E18.96906
G1 X71.53 Y134.97 E18.97855
G1 X71.52 Y135.00 E18.97913
G1 X71.46 Y136.08 E18.99941
G1 X71.46 Y136.10 E18.99981
G1 X71.56 Y136.84 E19.01363
G1 X71.66 Y136.93 E19.01622
G1 X73.65 Y137.13 E19.05362
G1 X73.79 Y137.01 E19.05693
G1 X73.79 Y134.54 E19.10295
G1 X73.67 Y134.43 E19.10606
G0 F4320 X73.67 Y134.13
G0 X74.17 Y134.38
G0 X74.17 Y137.18
G0 X73.67 Y137.79
G0 X73.67 Y138.10
G1 F1200 X71.53 Y138.10 E19.14603
G1 X71.41 Y138.21 E19.14912
G1 X71.41 Y140.35 E19.18912
G1 X71.53 Y140.47 E19.19222
G1 X73.67 Y140.47 E19.23219
G1 X73.79 Y140.35 E19.23531
G1 X73.79 Y138.21 E19.27530
G1 X73.67 Y138.10 E19.27841
G0 F4320 X73.67 Y137.79
G0 X77.15 Y139.22
G0 X77.45 Y139.24
G1 F1200 X77.39 Y140.32 E19.29865
G1 X77.39 Y140.34 E19.29904
G1 X77.49 Y141.07 E19.31289
G1 X77.59 Y141.17 E19.31549
G1 X79.58 Y141.36 E19.35286
G1 X79.71 Y141.24 E19.35616
G1 X79.71 Y138.78 E19.40219
G1 X79.60 Y138.66 E19.40529
G1 X77.74 Y138.66 E19.43996
G1 X77.64 Y138.73 E19.44227
G1 X77.45 Y139.24 E19.45234
G0 F4320 X77.15 Y139.22
G0 X77.62 Y138.27
G0 X79.75 Y138.28
G0 X80.10 Y138.62
G0 X80.10 Y141.41
G0 X79.71 Y141.76
G0 X77.46 Y142.03
G0 X77.46 Y142.33
G1 F1200 X77.34 Y142.45 E19.45544
G1 X77.34 Y144.59 E19.49541
G1 X77.46 Y144.70 E19.49851
G1 X79.60 Y144.70 E19.53849
G1 X79.71 Y144.59 E19.54160
G1 X79.71 Y142.45 E19.58158
G1 X79.60 Y142.33 E19.58468
G1 X77.46 Y142.33 E19.62465
G0 F4320 X77.46 Y142.03
G0 X76.99 Y140.32
G0 X77.32 Y138.48
G0 X79.75 Y138.28
G0 X80.10 Y138.62
G0 X84.66 Y138.10
G0 X84.96 Y138.10
G1 F1200 X85.07 Y138.21 E19.62776
G1 X87.21 Y138.21 E19.66771
G1 X87.33 Y138.10 E19.67083
G1 X87.33 Y135.96 E19.71080
G1 X87.21 Y135.84 E19.71391
G1 X85.07 Y135.84 E19.75386
G1 X84.96 Y135.96 E19.75695
G1 X84.96 Y138.10 E19.79693
G0 F4320 X84.66 Y138.10
G0 X84.57 Y135.80
G0 X85.07 Y135.13
G0 X85.07 Y134.83
G1 F1200 X87.21 Y134.83 E19.83688
G1 X87.33 Y134.71 E19.84000
G1 X87.33 Y132.57 E19.87997
G1 X87.21 Y132.45 E19.88308
G1 X85.07 Y132.45 E19.92303
G1 X84.96 Y132.57 E19.92612
G1 X84.96 Y134.71 E19.96610
G1 X85.07 Y134.83 E19.96920
G0 F4320 X85.07 Y135.13
G0 X87.37 Y135.21
G0 X91.15 Y133.86
G0 X91.45 Y133.86
G1 F1200 X91.57 Y133.98 E19.97230
G1 X93.75 Y133.98 E20.01306
G1 X93.87 Y133.85 E20.01637
G1 X93.68 Y131.85 E20.05378
G1 X93.57 Y131.75 E20.05648
G1 X91.58 Y131.56 E20.09392
G1 X91.45 Y131.68 E20.09721
G1 X91.45 Y133.86 E20.13797
G0 F4320 X91.15 Y133.86
G0 X91.07 Y131.51
G0 X91.57 Y130.89
G0 X91.57 Y130.59
G1 F1200 X93.71 Y130.59 E20.17796
G1 X93.82 Y130.47 E20.18108
G1 X93.82 Y128.33 E20.22105
G1 X93.71 Y128.22 E20.22415
G1 X91.57 Y128.22 E20.26415
G1 X91.45 Y128.33 E20.26724
G1 X91.45 Y130.47 E20.30721
G1 X91.57 Y130.59 E20.31031
G0 F4320 X91.57 Y130.89
G0 X93.86 Y130.98
G0 X94.21 Y130.63
G0 X95.80 Y125.81
G0 X95.80 Y125.51
G1 F1200 X97.98 Y125.51 E20.35111
G1 X98.10 Y125.38 E20.35442
G1 X97.91 Y123.39 E20.39185
G1 X97.81 Y123.29 E20.39455
G1 X95.81 Y123.09 E20.43198
G1 X95.68 Y123.21 E20.43528
G1 X95.68 Y125.39 E20.47603
G1 X95.80 Y125.51 E20.47914
G0 F4320 X95.80 Y125.81
G0 X95.30 Y125.55
G0 X95.30 Y123.04
G0 X95.80 Y122.43
G0 X95.80 Y122.13
G1 F1200 X97.94 Y122.13 E20.51915
G1 X98.06 Y122.01 E20.52227
G1 X98.06 Y119.87 E20.56228
G1 X97.94 Y119.75 E20.56538
G1 X95.80 Y119.75 E20.60539
G1 X95.68 Y119.87 E20.60848
G1 X95.68 Y122.01 E20.64849
G1 X95.80 Y122.13 E20.65160
G0 F4320 X95.80 Y122.43
G0 X103.52 Y122.08
G0 X103.73 Y121.87
G1 F1200 X103.83 Y121.98 E20.65436
G1 X106.11 Y122.17 E20.69704
G1 X106.24 Y122.05 E20.70031
G1 X106.24 Y119.30 E20.75155
G1 X106.12 Y119.19 E20.75466
G1 X103.66 Y119.19 E20.80061
G1 X103.54 Y119.31 E20.80384
G1 X103.73 Y121.87 E20.85177
G0 F4320 X103.52 Y122.08
G0 X103.66 Y122.35
G0 X106.25 Y122.56
G0 X106.67 Y122.01
G0 X106.97 Y122.01
G1 F1200 X107.09 Y122.13 E20.85488
G1 X109.23 Y122.13 E20.89485
G1 X109.35 Y122.01 E20.89797
G1 X109.35 Y119.30 E20.94849
G1 X109.23 Y119.19 E20.95160
G1 X107.09 Y119.19 E20.99157
G1 X106.97 Y119.30 E20.99466
G1 X106.97 Y122.01 E21.04519
G0 F4320 X106.67 Y122.01
G0 X106.93 Y122.51
G0 X113.16 Y125.51
G0 X113.46 Y125.51
G1 F1200 X113.46 Y128.22 E21.09572
G1 X113.58 Y128.34 E21.09882
G1 X115.72 Y128.34 E21.13883
G1 X115.84 Y128.22 E21.14195
G1 X115.84 Y125.51 E21.19248
G1 X115.72 Y125.40 E21.19558
G1 X113.58 Y125.40 E21.23559
G1 X113.46 Y125.51 E21.23868
G0 F4320 X113.16 Y125.51
G0 X113.42 Y125.01
G0 X115.88 Y125.01
G0 X116.27 Y125.47
G0 X116.57 Y125.47
G1 F1200 X116.57 Y128.22 E21.28997
G1 X116.68 Y128.34 E21.29308
G1 X119.14 Y128.34 E21.33903
G1 X119.26 Y128.21 E21.34228
G1 X119.07 Y125.65 E21.39023
G1 X118.97 Y125.54 E21.39297
G1 X116.69 Y125.35 E21.43565
G1 X116.57 Y125.47 E21.43893
G0 F4320 X116.27 Y125.47
G0 X116.56 Y124.96
G0 X119.15 Y125.17
G0 X119.45 Y125.48
G0 X125.01 Y128.33
G0 X125.32 Y128.33
G1 F1200 X125.32 Y130.47 E21.47891
G1 X125.43 Y130.59 E21.48201
G1 X127.57 Y130.59 E21.52198
G1 X127.69 Y130.47 E21.52510
G1 X127.69 Y128.33 E21.56507
G1 X127.57 Y128.22 E21.56818
G1 X125.43 Y128.22 E21.60815
G1 X125.32 Y128.33 E21.61124
G0 F4320 X125.01 Y128.33
G0 X124.93 Y130.63
G0 X125.24 Y131.34
G0 X125.44 Y131.56
G1 F1200 X125.32 Y131.68 E21.61453
G1 X125.32 Y133.86 E21.65529
G1 X125.43 Y133.98 E21.65840
G1 X127.61 Y133.98 E21.69917
G1 X127.73 Y133.85 E21.70248
G1 X127.54 Y131.85 E21.73990
G1 X127.44 Y131.75 E21.74259
G1 X125.44 Y131.56 E21.78001
G0 F4320 X125.24 Y131.34
G0 X121.50 Y134.54
G0 X121.20 Y134.54
G1 F1200 X121.08 Y134.43 E21.78312
G1 X119.23 Y134.43 E21.81777
G1 X119.12 Y134.50 E21.82008
G1 X118.94 Y134.97 E21.82958
G1 X118.93 Y135.00 E21.83017
G1 X118.87 Y136.09 E21.85045
G1 X118.87 Y136.10 E21.85083
G1 X118.98 Y136.84 E21.86466
G1 X119.08 Y136.93 E21.86726
G1 X121.07 Y137.13 E21.90462
G1 X121.20 Y137.01 E21.90793
G1 X121.20 Y134.54 E21.95395
G0 F4320 X121.50 Y134.54
G0 X121.58 Y137.18
G0 X121.08 Y137.79
G0 X121.08 Y138.10
G1 F1200 X118.94 Y138.10 E21.99396
G1 X118.82 Y138.21 E21.99706
G1 X118.82 Y140.35 E22.03705
G1 X118.94 Y140.47 E22.04015
G1 X121.08 Y140.47 E22.08016
G1 X121.20 Y140.35 E22.08328
G1 X121.20 Y138.21 E22.12327
G1 X121.08 Y138.10 E22.12638
G0 F4320 X121.08 Y137.79
G0 X118.78 Y137.71
G0 X115.07 Y138.72
G0 X114.85 Y138.92
G1 F1200 X114.75 Y138.81 E22.12927
G1 X112.75 Y138.62 E22.16678
G1 X112.62 Y138.73 E22.17008
G1 X112.62 Y141.24 E22.21691
G1 X112.75 Y141.36 E22.22020
G1 X114.75 Y141.17 E22.25771
G1 X114.85 Y141.05 E22.26061
G1 X114.85 Y138.92 E22.30041
G0 F4320 X115.07 Y138.72
G0 X115.24 Y141.20
G0 X114.87 Y142.03
G0 X114.87 Y142.33
G1 F1200 X112.73 Y142.33 E22.34039
G1 X112.62 Y142.45 E22.34348
G1 X112.62 Y144.59 E22.38345
G1 X112.73 Y144.70 E22.38655
G1 X114.87 Y144.70 E22.42653
G1 X114.99 Y144.59 E22.42964
G1 X114.99 Y142.45 E22.46962
G1 X114.87 Y142.33 E22.47272
G0 F4320 X114.87 Y142.03
G0 X112.61 Y141.76
G0 X112.23 Y141.41
G0 X108.80 Y138.10
G0 X108.50 Y138.10
G1 F1200 X108.50 Y135.96 E22.51270
G1 X108.38 Y135.84 E22.51580
G1 X106.24 Y135.84 E22.55577
G1 X106.12 Y135.96 E22.55886
G1 X106.12 Y138.10 E22.59884
G1 X106.24 Y138.21 E22.60194
G1 X108.38 Y138.21 E22.64191
G1 X108.50 Y138.10 E22.64503
G0 F4320 X108.80 Y138.10
G0 X108.88 Y135.80
G0 X108.38 Y135.13
G0 X108.38 Y134.83
G1 F1200 X108.50 Y134.71 E22.64815
