;Generated with Cura_SteamEngine 13.12
M109 T0 S220.000000
T0
;Sliced ?filename? at: Wed 22-01-2014 09:15:20
;Basic settings: Layer height: 0.1 Walls: 0.4 Fill: 15
;Print time: #P_TIME#
;Filament used: #F_AMNT#m #F_WGHT#g
;Filament cost: #F_COST#
G21        ;metric values
G90        ;absolute positioning
M107       ;start with the fan off
G28 X0 Y0  ;move X/Y to min endstops
G28 Z0     ;move Z to min endstops
G1 Z15.0 F?max_z_speed? ;move the platform down 15mm
G92 E0                  ;zero the extruded length
G1 F200 E3              ;extrude 3mm of feed stock
G92 E0                  ;zero the extruded length again
G1 F9000
M117 Printing...

;Layer count: 42
;LAYER:0
M107
G0 F2520 X124.06 Y91.83 Z0.30
;TYPE:SKIRT
G1 F2400 E0.00000
G1 F1140 X124.59 Y91.16 E0.01593
G1 X141.46 Y72.22 E0.48965
G1 X144.36 Y69.06 E0.56977
G1 X147.27 Y70.22 E0.62825
G1 X148.57 Y71.48 E0.66211
G1 X154.59 Y78.09 E0.82901
G1 X167.01 Y92.40 E1.18309
G1 X172.60 Y108.18 E1.49575
G1 X172.38 Y115.94 E1.64072
G1 X172.21 Y118.77 E1.69361
G1 X171.11 Y125.90 E1.82835
G1 X170.66 Y127.68 E1.86263
G1 X166.44 Y133.07 E1.99059
G1 X165.23 Y134.13 E2.02071
G1 X163.62 Y134.46 E2.05127
G1 X160.11 Y134.92 E2.11754
G1 X157.39 Y135.17 E2.16852
G1 X152.17 Y133.59 E2.27045
G1 X147.47 Y130.39 E2.37654
G1 X145.53 Y128.44 E2.42792
G1 X143.79 Y130.02 E2.47171
G1 X139.95 Y132.82 E2.56047
G1 X138.72 Y133.56 E2.58726
G1 X136.91 Y134.19 E2.62303
G1 X133.87 Y135.09 E2.68229
G1 X131.81 Y135.04 E2.72084
G1 X128.22 Y134.58 E2.78847
G1 X125.58 Y134.09 E2.83851
G1 X124.02 Y132.39 E2.88160
G1 X120.11 Y127.45 E2.99921
G1 X118.64 Y118.42 E3.17014
G1 X118.23 Y109.53 E3.33647
G1 X118.50 Y107.17 E3.38083
G1 X121.70 Y97.89 E3.56408
G1 X123.57 Y92.66 E3.66777
G1 X124.06 Y91.83 E3.68591
G0 F2520 X130.59 Y96.12
G1 F1140 X126.30 Y108.39 E3.92883
G1 X126.18 Y109.43 E3.94830
G1 X126.53 Y116.91 E4.08815
G1 X127.59 Y123.43 E4.21152
G1 X130.02 Y126.50 E4.28474
G1 X130.28 Y126.55 E4.28972
G1 X133.15 Y126.92 E4.34382
G1 X133.78 Y126.94 E4.35560
G1 X135.55 Y126.41 E4.39000
G1 X136.51 Y126.08 E4.40909
G1 X136.88 Y125.86 E4.41706
G1 X139.98 Y123.60 E4.48867
G1 X145.73 Y118.38 E4.63371
G1 X151.31 Y123.96 E4.78115
G1 X154.44 Y126.09 E4.85187
G1 X157.26 Y126.95 E4.90697
G1 X158.51 Y126.83 E4.93027
G1 X160.95 Y126.52 E4.97621
G1 X163.37 Y123.43 E5.04952
G1 X163.40 Y123.30 E5.05195
G1 X163.92 Y120.04 E5.11371
G1 X164.32 Y117.26 E5.16619
G1 X164.61 Y110.47 E5.29299
G1 X164.64 Y108.96 E5.32135
G1 X160.19 Y96.37 E5.57078
G1 X148.70 Y83.16 E5.89778
G1 X145.39 Y79.53 E5.98953
G1 X130.67 Y96.01 E6.40227
G1 X130.59 Y96.12 E6.40472
G1 F2400 E1.90472
G0 F2520 X128.07 Y93.82
;TYPE:WALL-OUTER
G1 F2400 E6.40472
G1 F1140 X127.74 Y94.24 E6.41467
G1 X127.51 Y94.63 E6.42312
G1 X122.96 Y107.63 E6.68035
G1 X122.77 Y109.32 E6.71199
G1 X123.14 Y117.26 E6.86053
G1 X124.37 Y124.84 E7.00400
G1 X127.51 Y128.81 E7.09855
G1 X128.27 Y129.64 E7.11955
G1 X129.75 Y129.91 E7.14761
G1 X132.89 Y130.32 E7.20675
G1 X134.24 Y130.35 E7.23188
G1 X136.60 Y129.65 E7.27792
G1 X137.96 Y129.17 E7.30484
G1 X138.76 Y128.70 E7.32220
G1 X142.13 Y126.24 E7.40011
G1 X145.62 Y123.07 E7.48807
G1 X149.13 Y126.59 E7.58101
G1 X152.96 Y129.20 E7.66742
G1 X156.91 Y130.40 E7.74466
G1 X158.86 Y130.22 E7.78121
G1 X162.00 Y129.81 E7.84030
G1 X162.67 Y129.67 E7.85316
G1 X163.06 Y129.33 E7.86272
G1 X166.49 Y124.96 E7.96657
G1 X166.73 Y123.99 E7.98510
G1 X167.28 Y120.58 E8.04973
G1 X167.71 Y117.57 E8.10646
G1 X168.01 Y110.59 E8.23700
G1 X168.05 Y108.41 E8.27780
G1 X163.18 Y94.62 E8.55089
G1 X151.24 Y80.90 E8.89069
G1 X146.36 Y75.55 E9.02585
G1 X145.60 Y74.82 E9.04557
G1 X145.19 Y74.65 E9.05395
G1 X128.07 Y93.82 E9.53410
G0 F2520 X127.20 Y93.34
G1 F1140 X145.28 Y73.09 E10.04125
G1 X145.39 Y73.13 E10.04334
G1 X146.12 Y73.84 E10.06248
G1 X152.05 Y80.35 E10.22686
G1 X164.02 Y94.14 E10.56803
G1 X169.18 Y108.72 E10.85690
G1 X168.98 Y115.79 E10.98890
G1 X168.82 Y118.40 E11.03793
G1 X167.77 Y125.22 E11.16680
G1 X167.54 Y126.15 E11.18462
G1 X163.96 Y130.72 E11.29311
G1 X163.66 Y130.98 E11.30057
G1 X163.05 Y131.11 E11.31212
G1 X159.74 Y131.54 E11.37459
G1 X157.74 Y131.72 E11.41207
G1 X153.65 Y130.48 E11.49185
G1 X149.65 Y127.76 E11.58233
G1 X145.64 Y123.75 E11.68816
G1 X141.65 Y127.37 E11.78892
G1 X138.07 Y129.98 E11.87151
G1 X137.27 Y130.46 E11.88896
G1 X135.87 Y130.95 E11.91661
G1 X133.42 Y131.68 E11.96448
G1 X132.06 Y131.64 E11.98978
G1 X128.75 Y131.22 E12.05216
G1 X127.31 Y130.95 E12.07946
G1 X126.60 Y130.18 E12.09905
G1 X123.33 Y126.04 E12.19771
G1 X122.03 Y118.07 E12.34839
G1 X121.64 Y109.64 E12.50609
G1 X121.84 Y107.92 E12.53845
G1 X126.66 Y94.12 E12.81147
G1 X126.87 Y93.76 E12.81928
G1 X127.20 Y93.34 E12.82926
G0 F2520 X127.21 Y93.55
;TYPE:FILL
G1 F1140 X127.83 Y93.89 E12.84241
G1 X127.60 Y93.10 E12.85529
G1 X128.36 Y93.29 E12.86816
G1 X128.14 Y92.50 E12.88102
G1 X128.89 Y92.69 E12.89389
G1 X128.67 Y91.90 E12.90680
G1 X129.43 Y92.09 E12.91968
G1 X129.21 Y91.30 E12.93255
G1 X129.96 Y91.49 E12.94541
G1 X129.74 Y90.71 E12.95828
G1 X130.49 Y90.90 E12.97119
G1 X130.27 Y90.11 E12.98409
G1 X131.03 Y90.30 E12.99697
G1 X130.81 Y89.51 E13.00984
G1 X131.56 Y89.70 E13.02271
G1 X131.34 Y88.91 E13.03559
G1 X132.10 Y89.10 E13.04850
G1 X131.87 Y88.32 E13.06137
G1 X132.63 Y88.50 E13.07425
G1 X132.41 Y87.72 E13.08713
G1 X133.16 Y87.91 E13.10006
G1 X132.94 Y87.12 E13.11294
G1 X133.70 Y87.31 E13.12581
G1 X133.47 Y86.52 E13.13870
G1 X134.23 Y86.71 E13.15159
G1 X134.01 Y85.93 E13.16451
G1 X134.76 Y86.11 E13.17739
G1 X134.54 Y85.33 E13.19026
G1 X135.30 Y85.52 E13.20315
G1 X135.07 Y84.73 E13.21603
G1 X135.83 Y84.92 E13.22892
G1 X135.61 Y84.13 E13.24183
G1 X136.37 Y84.32 E13.25471
G1 X136.14 Y83.53 E13.26762
G1 X136.90 Y83.72 E13.28054
G1 X136.68 Y82.94 E13.29343
G1 X137.43 Y83.13 E13.30631
G1 X137.21 Y82.34 E13.31923
G1 X137.97 Y82.53 E13.33216
G1 X137.74 Y81.74 E13.34506
G1 X138.50 Y81.93 E13.35795
G1 X138.28 Y81.14 E13.37084
G1 X139.03 Y81.33 E13.38372
G1 X138.81 Y80.54 E13.39665
G1 X139.57 Y80.74 E13.40953
G1 X139.34 Y79.95 E13.42242
G1 X140.10 Y80.14 E13.43533
G1 X139.88 Y79.35 E13.44822
G1 X140.63 Y79.54 E13.46114
G1 X140.41 Y78.75 E13.47406
G1 X141.17 Y78.94 E13.48697
G1 X140.95 Y78.15 E13.49987
G1 X141.70 Y78.35 E13.51278
G1 X141.48 Y77.56 E13.52568
G1 X142.24 Y77.75 E13.53863
G1 X142.01 Y76.96 E13.55152
G1 X142.77 Y77.15 E13.56442
G1 X142.55 Y76.36 E13.57733
G1 X143.30 Y76.55 E13.59023
G1 X143.08 Y75.76 E13.60314
G1 X143.84 Y75.95 E13.61606
G1 X143.61 Y75.17 E13.62895
G1 X144.37 Y75.36 E13.64187
G1 X144.15 Y74.57 E13.65480
G1 X144.90 Y74.76 E13.66770
G1 X144.55 Y74.12 E13.68137
G0 F2520 X144.81 Y73.82
G1 F1140 X146.02 Y75.03 E13.71329
G0 F2520 X146.59 Y75.60
G1 F1140 X155.29 Y84.30 E13.94314
G0 F2520 X155.17 Y84.40
G0 X155.96 Y85.88
G0 X155.84 Y85.98
G1 F1140 X162.73 Y92.87 E14.12521
G0 F2520 X162.61 Y92.98
G0 X163.46 Y94.53
G0 X163.31 Y94.58
G1 F1140 X164.42 Y95.69 E14.15450
G0 F2520 X163.93 Y96.33
G1 F1140 X165.04 Y97.44 E14.18378
G0 F2520 X164.55 Y98.08
G1 F1140 X165.66 Y99.19 E14.21305
G0 F2520 X165.17 Y99.83
G1 F1140 X166.28 Y100.94 E14.24234
G0 F2520 X165.79 Y101.58
G1 F1140 X166.90 Y102.69 E14.27164
G0 F2520 X166.41 Y103.33
G1 F1140 X167.52 Y104.44 E14.30094
G0 F2520 X167.03 Y105.08
G1 F1140 X168.13 Y106.19 E14.33022
G0 F2520 X167.65 Y106.83
G1 F1140 X168.76 Y107.94 E14.35951
G0 F2520 X168.19 Y108.51
G1 F1140 X169.02 Y109.34 E14.38145
G0 F2520 X169.01 Y109.89
G1 F1140 X168.18 Y109.07 E14.40327
G0 F2520 X168.17 Y109.62
G1 F1140 X168.99 Y110.44 E14.42497
G0 F2520 X168.98 Y110.99
G1 F1140 X168.16 Y110.18 E14.44657
G0 F2520 X168.14 Y110.73
G1 F1140 X168.96 Y111.54 E14.46813
G0 F2520 X168.94 Y112.09
G1 F1140 X168.12 Y111.27 E14.48989
G0 F2520 X168.10 Y111.81
G1 F1140 X168.93 Y112.64 E14.51186
G0 F2520 X168.91 Y113.19
G1 F1140 X168.07 Y112.35 E14.53400
G0 F2520 X168.05 Y112.90
G1 F1140 X168.90 Y113.74 E14.55637
G0 F2520 X168.88 Y114.29
G1 F1140 X168.03 Y113.44 E14.57893
G0 F2520 X168.01 Y113.98
G1 F1140 X168.87 Y114.84 E14.60169
G0 F2520 X168.85 Y115.39
G1 F1140 X167.98 Y114.52 E14.62467
G0 F2520 X167.96 Y115.07
G1 F1140 X168.83 Y115.94 E14.64769
G0 F2520 X168.80 Y116.47
G1 F1140 X167.93 Y115.61 E14.67049
G0 F2520 X167.91 Y116.15
G1 F1140 X168.76 Y117.00 E14.69301
G0 F2520 X168.73 Y117.54
G1 F1140 X167.89 Y116.69 E14.71529
G0 F2520 X167.87 Y117.24
G1 F1140 X168.70 Y118.07 E14.73732
G0 F2520 X168.65 Y118.59
G1 F1140 X167.83 Y117.76 E14.75913
G0 F2520 X167.76 Y118.26
G1 F1140 X168.58 Y119.08 E14.78082
G0 F2520 X168.50 Y119.57
G1 F1140 X167.68 Y118.75 E14.80237
G0 F2520 X167.61 Y119.25
G1 F1140 X168.43 Y120.06 E14.82382
G0 F2520 X168.35 Y120.55
G1 F1140 X167.54 Y119.74 E14.84518
G0 F2520 X167.47 Y120.24
G1 F1140 X168.27 Y121.04 E14.86639
G0 F2520 X168.20 Y121.53
G1 F1140 X167.40 Y120.73 E14.88758
G0 F2520 X167.32 Y121.21
G1 F1140 X168.12 Y122.02 E14.90883
G0 F2520 X168.05 Y122.51
G1 F1140 X167.24 Y121.70 E14.93018
G0 F2520 X167.16 Y122.19
G1 F1140 X167.97 Y123.00 E14.95163
G0 F2520 X167.90 Y123.49
G1 F1140 X167.08 Y122.68 E14.97316
G0 F2520 X167.00 Y123.16
G1 F1140 X167.82 Y123.98 E14.99475
G0 F2520 X167.75 Y124.47
G1 F1140 X166.93 Y123.65 E15.01644
G0 F2520 X166.84 Y124.13
G1 F1140 X167.67 Y124.96 E15.03844
G0 F2520 X167.57 Y125.43
G1 F1140 X166.73 Y124.58 E15.06091
G0 F2520 X166.61 Y125.03
G1 F1140 X167.46 Y125.88 E15.08350
G0 F2520 X167.27 Y126.26
G1 F1140 X166.36 Y125.35 E15.10769
G0 F2520 X166.11 Y125.66
G1 F1140 X167.03 Y126.58 E15.13191
G0 F2520 X166.78 Y126.90
G1 F1140 X165.86 Y125.98 E15.15610
G0 F2520 X165.61 Y126.30
G1 F1140 X166.53 Y127.21 E15.18030
G0 F2520 X166.28 Y127.53
G1 F1140 X165.36 Y126.61 E15.20448
G0 F2520 X165.12 Y126.93
G1 F1140 X166.03 Y127.85 E15.22868
G0 F2520 X165.78 Y128.16
G1 F1140 X164.87 Y127.25 E15.25285
G0 F2520 X164.62 Y127.57
G1 F1140 X165.54 Y128.48 E15.27704
G0 F2520 X165.29 Y128.80
G1 F1140 X164.37 Y127.88 E15.30121
G0 F2520 X164.12 Y128.20
G1 F1140 X165.04 Y129.12 E15.32539
G0 F2520 X164.79 Y129.43
G1 F1140 X163.87 Y128.52 E15.34956
G0 F2520 X163.62 Y128.84
G1 F1140 X164.54 Y129.75 E15.37373
G0 F2520 X164.29 Y130.07
G1 F1140 X163.38 Y129.15 E15.39791
G0 F2520 X163.12 Y129.46
G1 F1140 X164.04 Y130.38 E15.42224
G0 F2520 X163.78 Y130.69
G1 F1140 X162.82 Y129.73 E15.44762
G0 F2520 X162.40 Y129.87
G1 F1140 X163.42 Y130.89 E15.47462
G0 F2520 X162.94 Y130.98
G1 F1140 X161.92 Y129.96 E15.50162
G0 F2520 X161.42 Y130.03
G1 F1140 X162.44 Y131.05 E15.52861
G0 F2520 X161.94 Y131.11
G1 F1140 X160.92 Y130.09 E15.55559
G0 F2520 X160.42 Y130.16
G1 F1140 X161.44 Y131.18 E15.58256
G0 F2520 X160.94 Y131.24
G1 F1140 X159.92 Y130.22 E15.60951
G0 F2520 X159.42 Y130.29
G1 F1140 X160.44 Y131.31 E15.63646
G0 F2520 X159.94 Y131.37
G1 F1140 X158.92 Y130.35 E15.66340
G0 F2520 X158.40 Y130.40
G1 F1140 X159.43 Y131.43 E15.69056
G0 F2520 X158.91 Y131.48
G1 F1140 X157.88 Y130.45 E15.71772
G0 F2520 X157.36 Y130.49
G1 F1140 X158.39 Y131.52 E15.74490
G0 F2520 X157.88 Y131.57
G1 F1140 X156.82 Y130.51 E15.77283
G0 F2520 X156.32 Y131.15
G1 F1140 X155.20 Y130.02 E15.80258
G0 F2520 X154.70 Y130.65
G1 F1140 X153.57 Y129.53 E15.83227
G0 F2520 X154.38 Y129.78
G1 F1140 X155.51 Y130.90 E15.86200
G0 F2520 X156.01 Y130.27
G1 F1140 X157.13 Y131.39 E15.89177
G0 F2520 X157.18 Y131.24
G0 X153.93 Y130.26
G0 X153.88 Y130.41
G1 F1140 X152.60 Y129.12 E15.92580
G0 F2520 X152.31 Y129.40
G1 F1140 X150.82 Y127.91 E15.96525
G0 F2520 X150.54 Y128.19
G1 F1140 X149.04 Y126.70 E16.00474
G1 F2400 E11.50474
G0 F2520 X145.48 Y123.70
G1 F2400 E16.00474
G1 F1140 X145.16 Y123.67 E16.00921
G1 X145.04 Y124.11 E16.01362
G1 X144.57 Y124.21 E16.01809
G1 X144.44 Y124.64 E16.02250
G1 X143.98 Y124.75 E16.02692
G1 X143.85 Y125.18 E16.03136
G1 X143.38 Y125.28 E16.03582
G1 X143.26 Y125.72 E16.04028
G1 X142.79 Y125.82 E16.04470
G1 X142.66 Y126.26 E16.04910
G1 X142.19 Y126.35 E16.05351
G1 X142.07 Y126.80 E16.05835
G1 X141.54 Y126.84 E16.06402
G1 X141.47 Y127.32 E16.07047
G1 X140.89 Y127.31 E16.07708
G1 X140.82 Y127.80 E16.08373
G1 X140.24 Y127.79 E16.09035
G1 X140.16 Y128.28 E16.09700
G1 X139.58 Y128.27 E16.10361
G1 X139.51 Y128.76 E16.11026
G1 X138.93 Y128.74 E16.11688
G1 X138.85 Y129.24 E16.12367
G1 X138.23 Y129.18 E16.13118
G1 X138.20 Y129.71 E16.13942
G1 X137.43 Y129.51 E16.14996
G1 X137.51 Y130.15 E16.16231
G1 X136.80 Y129.73 E16.17784
G0 F2520 X136.37 Y129.86
G1 F1140 X136.93 Y130.43 E16.19283
G0 F2520 X136.51 Y130.57
G1 F1140 X135.93 Y129.99 E16.20827
G0 F2520 X135.49 Y130.12
G1 F1140 X136.10 Y130.72 E16.22412
G0 F2520 X135.67 Y130.86
G1 F1140 X135.06 Y130.25 E16.24026
G0 F2520 X134.62 Y130.38
G1 F1140 X135.23 Y130.99 E16.25636
G0 F2520 X134.80 Y131.12
G1 F1140 X134.16 Y130.49 E16.27306
G0 F2520 X133.59 Y130.47
G1 F1140 X134.36 Y131.25 E16.29353
G0 F2520 X133.92 Y131.38
G1 F1140 X133.01 Y130.46 E16.31779
G0 F2520 X132.37 Y130.39
G1 F1140 X133.49 Y131.51 E16.34733
G0 F2520 X132.94 Y131.52
G1 F1140 X131.72 Y130.31 E16.37948
G0 F2520 X131.07 Y130.22
G1 F1140 X132.36 Y131.51 E16.41349
G0 F2520 X131.74 Y131.46
G1 F1140 X130.42 Y130.14 E16.44844
G0 F2520 X129.77 Y130.05
G1 F1140 X131.09 Y131.38 E16.48340
G0 F2520 X130.44 Y131.29
G1 F1140 X129.08 Y129.93 E16.51944
G0 F2520 X128.39 Y129.80
G1 F1140 X129.79 Y131.21 E16.55666
G0 F2520 X129.15 Y131.12
G1 F1140 X123.35 Y125.33 E16.70965
G0 F2520 X123.24 Y124.66
G1 F1140 X127.10 Y128.51 E16.81141
G0 F2520 X125.69 Y128.80
G1 F1140 X127.78 Y130.89 E16.86654
G0 F2520 X128.48 Y131.02
G1 F1140 X123.56 Y126.11 E16.99629
G0 F2520 X124.96 Y125.81
G1 F1140 X123.13 Y123.98 E17.04455
G0 F2520 X123.02 Y123.31
G1 F1140 X124.17 Y124.45 E17.07477
G0 F2520 X124.06 Y123.78
G1 F1140 X122.91 Y122.63 E17.10499
G0 F2520 X122.80 Y121.96
G1 F1140 X123.95 Y123.10 E17.13521
G0 F2520 X123.84 Y122.42
G1 F1140 X122.69 Y121.28 E17.16544
G0 F2520 X122.58 Y120.60
G1 F1140 X123.73 Y121.75 E17.19566
G0 F2520 X123.62 Y121.07
G1 F1140 X122.47 Y119.93 E17.22591
G0 F2520 X122.36 Y119.25
G1 F1140 X123.51 Y120.40 E17.25616
G0 F2520 X123.40 Y119.72
G1 F1140 X122.25 Y118.58 E17.28641
G0 F2520 X122.16 Y117.92
G1 F1140 X123.29 Y119.05 E17.31612
G0 F2520 X123.18 Y118.37
G1 F1140 X122.14 Y117.33 E17.34366
G0 F2520 X122.11 Y116.74
G1 F1140 X123.07 Y117.70 E17.36902
G0 F2520 X122.99 Y117.05
G1 F1140 X122.08 Y116.14 E17.39306
G0 F2520 X122.06 Y115.55
G1 F1140 X122.96 Y116.46 E17.41707
G0 F2520 X122.94 Y115.86
G1 F1140 X122.03 Y114.96 E17.44106
G0 F2520 X122.00 Y114.36
G1 F1140 X122.91 Y115.27 E17.46505
G0 F2520 X122.88 Y114.68
G1 F1140 X121.97 Y113.77 E17.48902
G0 F2520 X121.95 Y113.18
G1 F1140 X122.85 Y114.08 E17.51298
G0 F2520 X122.82 Y113.49
G1 F1140 X121.92 Y112.58 E17.53695
G0 F2520 X121.89 Y111.99
G1 F1140 X122.80 Y112.90 E17.56090
G0 F2520 X122.77 Y112.31
G1 F1140 X121.86 Y111.40 E17.58483
G0 F2520 X121.84 Y110.81
G1 F1140 X122.74 Y111.71 E17.60879
G0 F2520 X122.71 Y111.12
G1 F1140 X121.81 Y110.21 E17.63272
G0 F2520 X121.79 Y109.62
G1 F1140 X122.69 Y110.53 E17.65655
G0 F2520 X122.66 Y109.93
G1 F1140 X121.84 Y109.11 E17.67815
G0 F2520 X121.90 Y108.61
G1 F1140 X122.63 Y109.34 E17.69750
G0 F2520 X122.69 Y108.83
G1 F1140 X121.96 Y108.10 E17.71676
G0 F2520 X122.08 Y107.65
G1 F1140 X122.74 Y108.32 E17.73435
G0 F2520 X122.80 Y107.81
G1 F1140 X122.22 Y107.23 E17.74960
G0 F2520 X122.37 Y106.81
G1 F1140 X122.99 Y107.14 E17.76390
G1 X122.59 Y106.18 E17.77816
G1 X123.28 Y106.31 E17.79245
G1 X122.88 Y105.35 E17.80671
G1 X123.57 Y105.47 E17.82101
G1 X123.18 Y104.51 E17.83527
G1 X123.86 Y104.63 E17.84956
G1 X123.47 Y103.67 E17.86383
G1 X124.16 Y103.79 E17.87813
G1 X123.76 Y102.83 E17.89239
G1 X124.45 Y102.95 E17.90669
G1 X124.05 Y101.99 E17.92096
G1 X124.74 Y102.11 E17.93525
G1 X124.35 Y101.15 E17.94951
G1 X125.04 Y101.28 E17.96381
G1 X124.64 Y100.32 E17.97813
G1 X125.33 Y100.44 E17.99245
G1 X124.93 Y99.48 E18.00672
G1 X125.62 Y99.60 E18.02105
G1 X125.22 Y98.64 E18.03538
G1 X125.91 Y98.76 E18.04966
G1 X125.52 Y97.80 E18.06401
G1 X126.21 Y97.92 E18.07831
G1 X125.81 Y96.96 E18.09265
G1 X126.50 Y97.08 E18.10697
G1 X126.10 Y96.12 E18.12127
G1 X126.79 Y96.25 E18.13559
G1 X126.40 Y95.28 E18.14992
G1 X127.09 Y95.41 E18.16428
G1 X126.69 Y94.44 E18.17864
G1 X127.40 Y94.59 E18.19298
G1 X126.96 Y93.87 E18.20854
